X:481
T:The Huzzar
C:Rutherford, 1759
F:http://www.vwml.org/record/RutherfordVol2/2249/p25
N:Also for the dance "Sweet Caroline" by Kathryn and David Wright
M:6/8
R:Jig
L:1/8
S:Colin Hume's website,  colinhume.com  - chords can also be printed below the stave.
Q:3/8=112
K:G
P:A
|: "G"G2g "C"f2e | "G"d3G3 | "Am"A2A A2B | "D"A2d AFD | "C"E2G "G/B"D2G | "Am"E2G "D"D2b | "A7"a2g "D7"def | "G"g3g3 :|
P:B
|: "G"B2G BcB | "D"A3D3 | "G"G2A "Em"B2G | "Am"BcB "D7"ABc | "G"Ld2D "D/F#"Ld2D | "Em"Ld3 "C"g3 | "G/D"dcB AGF | "G"G3G3 :|

